Obsidian-Gray/places/64/folder-open.svg

<svg height="64" width="64" xmlns="http://www.w3.org/2000/svg" xmlns:xlink="http://www.w3.org/1999/xlink"><linearGradient id="a" gradientTransform="matrix(1.3117629 0 0 1.0517617 -70.010027 8.080182)" gradientUnits="userSpaceOnUse" x1="97.538795" x2="97.538795" y1="16.962049" y2="44.260689"><stop offset="0" stop-color="#fff"/><stop offset=".0221225" stop-color="#fff" stop-opacity=".235294"/><stop offset=".97909725" stop-color="#fff" stop-opacity=".156863"/><stop offset="1" stop-color="#fff" stop-opacity=".392157"/></linearGradient><linearGradient id="b" gradientTransform="matrix(1.4942964 0 0 1.0525126 -3.863118 9.244006)" gradientUnits="userSpaceOnUse" x1="22.934725" x2="22.934725" y1="49.629246" y2="36.599415"><stop offset="0" stop-color="#0a0a0a" stop-opacity=".498"/><stop offset="1" stop-color="#0a0a0a" stop-opacity="0"/></linearGradient><linearGradient id="c" gradientTransform="matrix(.49206349 0 0 .4002121 72.84127 7.468351)" gradientUnits="userSpaceOnUse" x1="-91" x2="-91" y1="43.999817" y2="119.05979"><stop offset="0" stop-color="#57738b"/><stop offset="1" stop-color="#455157"/></linearGradient><linearGradient id="d" gradientTransform="matrix(.2134205 0 0 .06641689 -13.147881 75.518568)" gradientUnits="userSpaceOnUse" x1="302.85715" x2="302.85715" y1="366.64789" y2="609.50507"><stop offset="0" stop-opacity="0"/><stop offset=".5"/><stop offset="1" stop-opacity="0"/></linearGradient><radialGradient id="e" cx="605.71429" cy="486.64789" gradientTransform="matrix(.08277507 0 0 .06641689 65.628912 75.518568)" gradientUnits="userSpaceOnUse" r="117.14286" xlink:href="#f"/><linearGradient id="f"><stop offset="0"/><stop offset="1" stop-opacity="0"/></linearGradient><radialGradient id="g" cx="605.71429" cy="486.64789" gradientTransform="matrix(-.08277505 0 0 .06641689 62.347829 75.518568)" gradientUnits="userSpaceOnUse" r="117.14286" xlink:href="#f"/><linearGradient id="h" gradientTransform="matrix(1.3117629 0 0 1.3024467 -70.020911 -3.024751)" gradientUnits="userSpaceOnUse" x1="97.538795" x2="97.538795" y1="8.810323" y2="44.260689"><stop offset="0" stop-color="#fff"/><stop offset=".1088333" stop-color="#fff" stop-opacity=".235294"/><stop offset=".97909725" stop-color="#fff" stop-opacity=".156863"/><stop offset="1" stop-color="#fff" stop-opacity=".392157"/></linearGradient><linearGradient id="i" gradientTransform="matrix(1.0669668 0 0 1.1054032 70.355621 -4.275064)" gradientUnits="userSpaceOnUse" x1="-51.786404" x2="-51.786404" y1="53.514328" y2="3.633682"><stop offset="0" stop-opacity=".321739"/><stop offset="1" stop-opacity=".278261"/></linearGradient><path d="m6.9047717 8.3325268c-.5452063 0-.9841269.4389207-.9841269.984127v2.9370042h-1.4761905c-.5452064 0-.984127.43892-.984127.984127v15.253968h57.0793647v-15.253968c0-.545207-.43892-.984127-.984127-.984127h-30.999999v-2.9370042c0-.5452063-.438921-.984127-.984127-.984127z" fill="#cecece"/><path d="m7.2309065 8.0711968c-.9241838.0100873-1.5562935.4498937-1.5562935 1.3149167v2.6214335c-.4726762 0-.726827-.0015-1.0354984 0-.8259581.0039-1.4159717.464956-1.4159717 1.394006.046057 13.53059-.00886 15.380207-.00886 15.380207l57.5714311 1.482312v-16.876218c0-.865028-.56974-1.390394-1.493929-1.380307h-30.490197v-2.5581738c0-.865023-.584291-1.3781764-1.450736-1.3781764h-20.1199553z" fill="none" opacity=".8" stroke="url(#i)" stroke-width=".492063"/><path d="m7.1508035 8.5631816c-.5452064 0-.984127.4389206-.984127.984127v2.9523814h-1.4761905c-.5452063 0-.984127.43892-.984127.984127v16.238095h56.587302v-16.238095c0-.545207-.438921-.984127-.984127-.984127h-31v-2.9523814c0-.5452064-.43892-.984127-.984127-.984127z" fill="none" stroke="url(#h)" stroke-linecap="round" stroke-linejoin="round" stroke-width=".492063"/><g transform="matrix(.49340874 0 0 .48810327 .427578 1.380024)"><path d="m12.462574 99.870178h103.05159v16.129816h-103.05159z" fill="url(#d)" opacity=".3"/><path d="m115.51417 99.870734v16.128926c4.26271.0304 10.30516-3.61367 10.30516-8.0655s-4.75687-8.063426-10.30516-8.063426z" fill="url(#e)" opacity=".3"/><path d="m12.462574 99.870734v16.128926c-4.2627113.0304-10.3051588-3.61367-10.3051588-8.0655s4.7568636-8.063426 10.3051588-8.063426z" fill="url(#g)" opacity=".3"/></g><path d="m2.5992063 25.277727 58.8015827.000389c.821062.000005 1.353179.461442 1.353179 1.035129l-2.320807 27.981309c.01899.725882-.270709 1.013695-1.224668.998475l-54.0940352-.018206c-.8210522 0-1.6489835-.42839-1.6489835-1.002077l-2.2194426-27.959486c0-.573687.5321175-1.035538 1.3531746-1.035533z" fill="url(#c)"/><path d="m2.3643543 25.031695 59.2712817.000394c.827847.000005 1.364364.469005 1.364364 1.052106l-2.331854 28.44002c.01914.73778-.272948 1.030312-1.234789 1.014836l-54.5410954-.018551c-.8278378 0-1.6626087-.435417-1.6626087-1.018512l-2.2296529-28.417779c0-.583095.5365165-1.052519 1.3643543-1.052514z" fill="url(#b)" opacity=".4"/><g fill="none" stroke-linecap="round" stroke-linejoin="round"><path d="m1.7593032 27.073419 2.1885951 27.094832c.070355.601956.9954985.609406 1.3510193.609406 0 0 36.5913134.01594 53.9292384.02387 1.262635-.06399.569421-1.477923.813662-2.189205.420542-8.736426 2.235405-25.999396 2.235405-25.999396 0-.449829-.38377-.68635-1.086171-.68635h-58.5809514c-.8481452 0-.9078965.465384-.8507974 1.146848z" opacity=".5" stroke="url(#a)"/><path d="m2.5992063 25.277727 58.8015827.000389c.821062.000005 1.353179.461442 1.353179 1.035129l-2.320807 27.981309c.01899.725882-.270709 1.013695-1.224668.998475l-54.0940352-.018206c-.8210522 0-1.6489835-.42839-1.6489835-1.002077l-2.2194426-27.959486c0-.573687.5321175-1.035538 1.3531746-1.035533z" opacity=".3" stroke="#000" stroke-width=".492063"/></g></svg>

<?xml version="1.0" encoding="UTF-8" standalone="no"?>
<!-- Created with Inkscape (http://www.inkscape.org/) -->

<svg
   xmlns:dc="http://purl.org/dc/elements/1.1/"
   xmlns:cc="http://creativecommons.org/ns#"
   xmlns:rdf="http://www.w3.org/1999/02/22-rdf-syntax-ns#"
   xmlns:svg="http://www.w3.org/2000/svg"
   xmlns="http://www.w3.org/2000/svg"
   xmlns:xlink="http://www.w3.org/1999/xlink"
   xmlns:sodipodi="http://sodipodi.sourceforge.net/DTD/sodipodi-0.dtd"
   xmlns:inkscape="http://www.inkscape.org/namespaces/inkscape"
   width="64"
   height="64"
   id="svg29484"
   version="1.1"
   inkscape:version="0.92.4 (unknown)"
   sodipodi:docname="folder-open.svg">
  <defs
     id="defs29486">
    <linearGradient
       inkscape:collect="always"
       xlink:href="#linearGradient8272-8"
       id="linearGradient5329-6"
       gradientUnits="userSpaceOnUse"
       gradientTransform="matrix(1.3117629,0,0,1.0517617,-70.010027,8.0801825)"
       x1="97.538795"
       y1="16.962049"
       x2="97.538795"
       y2="44.260689" />
    <linearGradient
       id="linearGradient8272-8">
      <stop
         offset="0"
         style="stop-color:#ffffff;stop-opacity:1"
         id="stop8274-8" />
      <stop
         offset="0.0221225"
         style="stop-color:#ffffff;stop-opacity:0.23529412"
         id="stop8276-4" />
      <stop
         offset="0.97909725"
         style="stop-color:#ffffff;stop-opacity:0.15686275"
         id="stop8278-5" />
      <stop
         offset="1"
         style="stop-color:#ffffff;stop-opacity:0.39215687"
         id="stop8280-5" />
    </linearGradient>
    <linearGradient
       y2="36.599415"
       x2="22.934725"
       y1="49.629246"
       x1="22.934725"
       gradientTransform="matrix(1.4942964,0,0,1.0525126,-3.8631176,9.2440061)"
       gradientUnits="userSpaceOnUse"
       id="linearGradient6618"
       xlink:href="#linearGradient6129-963-697-142-998-580-273-0"
       inkscape:collect="always" />
    <linearGradient
       id="linearGradient6129-963-697-142-998-580-273-0">
      <stop
         id="stop2661-97"
         style="stop-color:#0a0a0a;stop-opacity:0.498"
         offset="0" />
      <stop
         id="stop2663-3"
         style="stop-color:#0a0a0a;stop-opacity:0"
         offset="1" />
    </linearGradient>
    <linearGradient
       y2="119.05979"
       x2="-91"
       y1="43.999817"
       x1="-91"
       gradientTransform="matrix(0.49206349,0,0,0.4002121,72.84127,7.4683507)"
       gradientUnits="userSpaceOnUse"
       id="linearGradient6563"
       xlink:href="#linearGradient4632-0-6-4-6"
       inkscape:collect="always" />
    <linearGradient
       id="linearGradient4632-0-6-4-6">
      <stop
         style="stop-color:#57738b;stop-opacity:1;"
         offset="0"
         id="stop4634-4-4-7-1" />
      <stop
         style="stop-color:#455157;stop-opacity:1;"
         offset="1"
         id="stop4636-3-1-5-7" />
    </linearGradient>
    <linearGradient
       inkscape:collect="always"
       xlink:href="#linearGradient5048-585"
       id="linearGradient22546"
       gradientUnits="userSpaceOnUse"
       gradientTransform="matrix(0.2134205,0,0,0.06641689,-13.147881,75.518568)"
       x1="302.85715"
       y1="366.64789"
       x2="302.85715"
       y2="609.50507" />
    <linearGradient
       id="linearGradient5048-585">
      <stop
         id="stop2667"
         style="stop-color:#000000;stop-opacity:0"
         offset="0" />
      <stop
         id="stop2669"
         style="stop-color:#000000;stop-opacity:1"
         offset="0.5" />
      <stop
         id="stop2671"
         style="stop-color:#000000;stop-opacity:0"
         offset="1" />
    </linearGradient>
    <radialGradient
       inkscape:collect="always"
       xlink:href="#linearGradient5060-179"
       id="radialGradient22548"
       gradientUnits="userSpaceOnUse"
       gradientTransform="matrix(0.08277507,0,0,0.06641689,65.628912,75.518568)"
       cx="605.71429"
       cy="486.64789"
       fx="605.71429"
       fy="486.64789"
       r="117.14286" />
    <linearGradient
       id="linearGradient5060-179">
      <stop
         id="stop2675"
         style="stop-color:#000000;stop-opacity:1"
         offset="0" />
      <stop
         id="stop2677"
         style="stop-color:#000000;stop-opacity:0"
         offset="1" />
    </linearGradient>
    <radialGradient
       inkscape:collect="always"
       xlink:href="#linearGradient5060-820"
       id="radialGradient22550"
       gradientUnits="userSpaceOnUse"
       gradientTransform="matrix(-0.08277505,0,0,0.06641689,62.347829,75.518568)"
       cx="605.71429"
       cy="486.64789"
       fx="605.71429"
       fy="486.64789"
       r="117.14286" />
    <linearGradient
       id="linearGradient5060-820">
      <stop
         id="stop2681"
         style="stop-color:#000000;stop-opacity:1"
         offset="0" />
      <stop
         id="stop2683"
         style="stop-color:#000000;stop-opacity:0"
         offset="1" />
    </linearGradient>
    <linearGradient
       inkscape:collect="always"
       xlink:href="#linearGradient9235-78"
       id="linearGradient6755"
       gradientUnits="userSpaceOnUse"
       gradientTransform="matrix(1.3117629,0,0,1.3024467,-70.020911,-3.0247506)"
       x1="97.538795"
       y1="8.8103228"
       x2="97.538795"
       y2="44.260689" />
    <linearGradient
       id="linearGradient9235-78">
      <stop
         id="stop9237-3"
         style="stop-color:#ffffff;stop-opacity:1"
         offset="0" />
      <stop
         id="stop9239-23"
         style="stop-color:#ffffff;stop-opacity:0.23529412"
         offset="0.1088333" />
      <stop
         id="stop9241-6"
         style="stop-color:#ffffff;stop-opacity:0.15686275"
         offset="0.97909725" />
      <stop
         id="stop9243-0"
         style="stop-color:#ffffff;stop-opacity:0.39215687"
         offset="1" />
    </linearGradient>
    <linearGradient
       inkscape:collect="always"
       xlink:href="#linearGradient3104-8-8-97-4-6-11-5-5-1-0-4"
       id="linearGradient6758"
       gradientUnits="userSpaceOnUse"
       gradientTransform="matrix(1.0669668,0,0,1.1054032,70.355621,-4.2750643)"
       x1="-51.786404"
       y1="53.514328"
       x2="-51.786404"
       y2="3.6336823" />
    <linearGradient
       id="linearGradient3104-8-8-97-4-6-11-5-5-1-0-4">
      <stop
         offset="0"
         style="stop-color:#000000;stop-opacity:0.32173914"
         id="stop3106-5-4-3-5-0-2-1-0-1-2-9" />
      <stop
         offset="1"
         style="stop-color:#000000;stop-opacity:0.27826086"
         id="stop3108-4-3-7-8-2-0-7-9-4-9-1" />
    </linearGradient>
    <linearGradient
       id="linearGradient4646-6-1-3-5-8-8-7">
      <stop
         offset="0"
         style="stop-color:#f9f9f9;stop-opacity:1"
         id="stop4648-2-1-9-37-1-22-2" />
      <stop
         offset="1"
         style="stop-color:#d8d8d8;stop-opacity:1"
         id="stop4650-3-28-6-7-5-9-4" />
    </linearGradient>
  </defs>
  <sodipodi:namedview
     id="base"
     pagecolor="#ffffff"
     bordercolor="#666666"
     borderopacity="1.0"
     inkscape:pageopacity="0.0"
     inkscape:pageshadow="2"
     inkscape:zoom="11"
     inkscape:cx="37.318198"
     inkscape:cy="31.450344"
     inkscape:current-layer="layer1"
     showgrid="true"
     inkscape:document-units="px"
     inkscape:grid-bbox="true"
     inkscape:window-width="1920"
     inkscape:window-height="1010"
     inkscape:window-x="0"
     inkscape:window-y="32"
     inkscape:window-maximized="1" />
  <metadata
     id="metadata29489">
    <rdf:RDF>
      <cc:Work
         rdf:about="">
        <dc:format>image/svg+xml</dc:format>
        <dc:type
           rdf:resource="http://purl.org/dc/dcmitype/StillImage" />
        <dc:title></dc:title>
      </cc:Work>
    </rdf:RDF>
  </metadata>
  <g
     id="layer1"
     inkscape:label="Layer 1"
     inkscape:groupmode="layer">
    <path
       inkscape:connector-curvature="0"
       style="color:#000000;display:inline;overflow:visible;visibility:visible;fill:#cecece;fill-opacity:1;fill-rule:nonzero;stroke:none;stroke-width:0.49202496;marker:none;enable-background:accumulate"
       d="m 6.9047717,8.3325268 c -0.5452063,0 -0.9841269,0.4389207 -0.9841269,0.984127 V 12.253658 H 4.4444543 c -0.5452064,0 -0.984127,0.43892 -0.984127,0.984127 V 28.491753 H 60.539692 V 13.237785 c 0,-0.545207 -0.43892,-0.984127 -0.984127,-0.984127 H 28.555566 V 9.3166538 c 0,-0.5452063 -0.438921,-0.984127 -0.984127,-0.984127 z"
       id="rect8678-4-5"
       sodipodi:nodetypes="sscssccsscsss" />
    <path
       d="M 7.2309065,8.0711968 C 6.3067227,8.0812841 5.674613,8.5210905 5.674613,9.3861135 v 2.6214335 c -0.4726762,0 -0.726827,-0.0015 -1.0354984,0 -0.8259581,0.0039 -1.4159717,0.464956 -1.4159717,1.394006 0.046057,13.53059 -0.00886,15.380207 -0.00886,15.380207 L 60.785714,30.264072 V 13.387854 c 0,-0.865028 -0.56974,-1.390394 -1.493929,-1.380307 H 28.801588 V 9.4493732 c 0,-0.865023 -0.584291,-1.3781764 -1.450736,-1.3781764 H 7.2308967 Z"
       inkscape:connector-curvature="0"
       id="path3468-0"
       style="color:#000000;display:inline;overflow:visible;visibility:visible;opacity:0.8;fill:none;stroke:url(#linearGradient6758);stroke-width:0.49206349;stroke-linecap:butt;stroke-linejoin:miter;stroke-miterlimit:4;stroke-dasharray:none;stroke-dashoffset:0;stroke-opacity:1;marker:none;enable-background:accumulate"
       sodipodi:nodetypes="cscccccsccsscc" />
    <path
       style="color:#000000;display:inline;overflow:visible;visibility:visible;fill:none;stroke:url(#linearGradient6755);stroke-width:0.4920634;stroke-linecap:round;stroke-linejoin:round;stroke-miterlimit:4;stroke-dasharray:none;stroke-dashoffset:0;stroke-opacity:1;marker:none;enable-background:accumulate"
       d="m 7.1508035,8.5631816 c -0.5452064,0 -0.984127,0.4389206 -0.984127,0.984127 V 12.49969 H 4.690486 c -0.5452063,0 -0.984127,0.43892 -0.984127,0.984127 V 29.721912 H 60.293661 V 13.483817 c 0,-0.545207 -0.438921,-0.984127 -0.984127,-0.984127 h -31 V 9.5473086 c 0,-0.5452064 -0.43892,-0.984127 -0.984127,-0.984127 z"
       id="rect8678-8"
       inkscape:connector-curvature="0"
       sodipodi:nodetypes="sscssccsscsss" />
    <g
       transform="matrix(0.49340874,0,0,0.48810327,0.42757762,1.380024)"
       id="use6273">
      <rect
         width="103.05159"
         height="16.129816"
         x="12.462574"
         y="99.870178"
         id="rect22540"
         style="display:inline;overflow:visible;visibility:visible;opacity:0.3;fill:url(#linearGradient22546);fill-opacity:1;fill-rule:nonzero;stroke:none;stroke-width:1;marker:none" />
      <path
         d="m 115.51417,99.870734 c 0,0 0,16.128926 0,16.128926 4.26271,0.0304 10.30516,-3.61367 10.30516,-8.0655 0,-4.45183 -4.75687,-8.063426 -10.30516,-8.063426 z"
         inkscape:connector-curvature="0"
         id="path22542"
         style="display:inline;overflow:visible;visibility:visible;opacity:0.3;fill:url(#radialGradient22548);fill-opacity:1;fill-rule:nonzero;stroke:none;stroke-width:1;marker:none" />
      <path
         d="m 12.462574,99.870734 c 0,0 0,16.128926 0,16.128926 -4.2627113,0.0304 -10.3051588,-3.61367 -10.3051588,-8.0655 0,-4.45183 4.7568636,-8.063426 10.3051588,-8.063426 z"
         inkscape:connector-curvature="0"
         id="path22544"
         style="display:inline;overflow:visible;visibility:visible;opacity:0.3;fill:url(#radialGradient22550);fill-opacity:1;fill-rule:nonzero;stroke:none;stroke-width:1;marker:none" />
    </g>
    <path
       d="m 2.5992063,25.277727 58.8015827,3.89e-4 c 0.821062,5e-6 1.353179,0.461442 1.353179,1.035129 l -2.320807,27.981309 c 0.01899,0.725882 -0.270709,1.013695 -1.224668,0.998475 L 5.1144578,55.274823 c -0.8210522,0 -1.6489835,-0.42839 -1.6489835,-1.002077 L 1.2460317,26.31326 c 0,-0.573687 0.5321175,-1.035538 1.3531746,-1.035533 z"
       inkscape:connector-curvature="0"
       id="path3369-8"
       style="display:inline;overflow:visible;visibility:visible;fill:url(#linearGradient6563);fill-opacity:1;fill-rule:nonzero;stroke:none;stroke-width:0.4920634;marker:none;enable-background:accumulate"
       sodipodi:nodetypes="ssccccccs" />
    <path
       d="m 2.3643543,25.031695 59.2712817,3.94e-4 C 62.463483,25.032094 63,25.501094 63,26.084195 l -2.331854,28.44002 c 0.01914,0.73778 -0.272948,1.030312 -1.234789,1.014836 L 4.8922616,55.5205 c -0.8278378,0 -1.6626087,-0.435417 -1.6626087,-1.018512 L 1,26.084209 C 1,25.501114 1.5365165,25.03169 2.3643543,25.031695 Z"
       inkscape:connector-curvature="0"
       id="path6127-4"
       style="opacity:0.4;fill:url(#linearGradient6618);fill-opacity:1;stroke:none;stroke-width:0.49206349"
       sodipodi:nodetypes="ssccccccs" />
    <path
       style="display:inline;overflow:visible;visibility:visible;opacity:0.5;fill:none;stroke:url(#linearGradient5329-6);stroke-width:1;stroke-linecap:round;stroke-linejoin:round;stroke-miterlimit:4;stroke-dasharray:none;stroke-dashoffset:0;stroke-opacity:1;marker:none;enable-background:accumulate"
       d="m 1.7593032,27.073419 2.1885951,27.094832 c 0.070355,0.601956 0.9954985,0.609406 1.3510193,0.609406 0,0 36.5913134,0.01594 53.9292384,0.02387 1.262635,-0.06399 0.569421,-1.477923 0.813662,-2.189205 0.420542,-8.736426 2.235405,-25.999396 2.235405,-25.999396 0,-0.449829 -0.38377,-0.68635 -1.086171,-0.68635 H 2.6101006 c -0.8481452,0 -0.9078965,0.465384 -0.8507974,1.146848 z"
       id="path8263-18"
       inkscape:connector-curvature="0"
       sodipodi:nodetypes="cccccccccc" />
    <path
       d="m 2.5992063,25.277727 58.8015827,3.89e-4 c 0.821062,5e-6 1.353179,0.461442 1.353179,1.035129 l -2.320807,27.981309 c 0.01899,0.725882 -0.270709,1.013695 -1.224668,0.998475 L 5.1144578,55.274823 c -0.8210522,0 -1.6489835,-0.42839 -1.6489835,-1.002077 L 1.2460317,26.31326 c 0,-0.573687 0.5321175,-1.035538 1.3531746,-1.035533 z"
       inkscape:connector-curvature="0"
       id="path3369-8-9"
       style="display:inline;overflow:visible;visibility:visible;opacity:0.3;fill:none;stroke:#000000;stroke-width:0.4920634;stroke-linecap:round;stroke-linejoin:round;stroke-miterlimit:4;stroke-dasharray:none;stroke-dashoffset:0;stroke-opacity:1;marker:none;enable-background:accumulate"
       sodipodi:nodetypes="ssccccccs" />
  </g>
</svg>
